X: 28111
T: Mr. Waller
R: waltz
M: 3/4
K: Cmajor
ce Tdc cG|cedc dG|cAFA cA|BGge fd|
cc'ba ge|ffff a/b/c'|Tbggg b/c'/d'|c'2b2 a2|
gagf ef|gf/e/fd Bd|c2cG EC|d2dc BG|
e2ed cA|c/d/e/f/ge fe|cc'bg af|geag fe|
fdge TBG|A2AGFF|BGGG A/B/c|AFFF d/e/f|
g2f/e/d/c/ B/c/d|G2 TB4|c6||
A2AA AA|B/c/ddc BA|c2cGEC|FAEG AD|
EGGc {c}B/A/G|FAAd {c}BG|g2gggg|{g}a2gf f2|
g2gd BG|f2fcAF|c'2 Tbagf|egfa gf/e/|
f2fc AF|B/G/B/d/gd BG|Tc2cdcd|cBAG FA|
d2de de|dcBA GB|cdef ge|fgab c'a|
gf/e/ fe/d/ ec|d2 Tc3B|c6||

